X: 683
T: Zou luoyang
L: 1/16
M: 2/4
K: G
d2 d2 B2 A B [I:setbarnb 1]| 
d2 A Bd4 | 
G2 G A d e d B | 
A B A ED4 | 
G2> A2 d e d B | 
d2 A B A2 E2 | 
G2 G A G E D A, | 
D8 |]

@@@ Tune index: 9557
